X: 1
T: Goin' Down South #2
I: Goin' Down SouthS-GFsquare
%C: S-G
M: C|
Z: Transcribed to abc by Mary Lou Knack
R: square
K: F
"Intro"\
|| "F"c2 c4 d2 | c8 | "Bb"c2B2 B2d2 | f4 F2G2 | "F"A4 c4 | "C7"A4 G4 | "F"F8 | z8 ||
|: \
"F"c2 c4 d2 | c8 | A2 A4 B2 | A8 | "C7"A2G2 G2^F2 | G4 A2G2 | "F"F2F2- "Bb"F2D2 | "F"C4- "C7"C4 |
"F"c2 c4 d2 | c8 | A2 A4 B2 | A8 | "C"G4 c4 | "G7"=B4 d4 | "C"c8 | z2A2 "C7"B2=B2 |
"F"c2 c4 d2 | c8 | A2 A4 B2 | A8 | "C7"A2G2 G2^F2 | G4 A2G2 | "F"F2F2- "Bb"F2D2 | "F"C4- "C7"C4 |
"F"c2 c4 d2 | c8 | "Bb"c2B2 B2d2 | f4 F2G2 |["1-N" "F"A4 c4 | "C7"A4 G4 | "F"F8- | F2 z6 :|
|["Coda" "F"A4 c4 | "C7"A4 F2G2 | "F"A4 c4 | "C7"A4 F2G2 | "F"A4 c4 | "C7"A4 G4 | "F"F8- | F2 z6 |]
